public/pieces/fairy/bC.svg

<?xml version="1.0" encoding="UTF-8" standalone="no"?>
<svg
   xmlns:dc="http://purl.org/dc/elements/1.1/"
   xmlns:cc="http://creativecommons.org/ns#"
   xmlns:rdf="http://www.w3.org/1999/02/22-rdf-syntax-ns#"
   xmlns:svg="http://www.w3.org/2000/svg"
   xmlns="http://www.w3.org/2000/svg"
   xmlns:xlink="http://www.w3.org/1999/xlink"
   xmlns:sodipodi="http://sodipodi.sourceforge.net/DTD/sodipodi-0.dtd"
   xmlns:inkscape="http://www.inkscape.org/namespaces/inkscape"
   inkscape:version="1.0 (4035a4fb49, 2020-05-01)"
   sodipodi:docname="bC.svg"
   id="svg4546"
   version="1.1"
   viewBox="0 0 50 50"
   clip-rule="evenodd"
   fill-rule="evenodd"
   image-rendering="optimizeQuality"
   shape-rendering="geometricPrecision"
   height="177.17"
   width="177.17">
  <metadata
     id="metadata4550">
    <rdf:RDF>
      <cc:Work
         rdf:about="">
        <dc:format>image/svg+xml</dc:format>
        <dc:type
           rdf:resource="http://purl.org/dc/dcmitype/StillImage" />
        <dc:title />
      </cc:Work>
    </rdf:RDF>
  </metadata>
  <sodipodi:namedview
     inkscape:document-rotation="0"
     inkscape:current-layer="svg4546"
     inkscape:window-maximized="0"
     inkscape:window-y="0"
     inkscape:window-x="392"
     inkscape:cy="8.0079909"
     inkscape:cx="41.966994"
     inkscape:zoom="1.6952677"
     inkscape:snap-nodes="false"
     showgrid="false"
     id="namedview4548"
     inkscape:window-height="729"
     inkscape:window-width="958"
     inkscape:pageshadow="2"
     inkscape:pageopacity="0"
     guidetolerance="10"
     gridtolerance="10"
     objecttolerance="10"
     borderopacity="1"
     bordercolor="#666666"
     pagecolor="#ffffff" />
  <defs
     id="defs4540">
    <linearGradient
       gradientUnits="userSpaceOnUse"
       y2="37.429001"
       x2="77.739998"
       y1="37.551998"
       x1="21.190001"
       id="0-9">
      <stop
         id="stop4569"
         stop-color="#fff" />
      <stop
         id="stop4571"
         stop-opacity="0"
         stop-color="#fff"
         offset="1" />
    </linearGradient>
    <linearGradient
       gradientUnits="userSpaceOnUse"
       y2="37.469002"
       x2="77.639999"
       y1="37.591999"
       x1="21.253"
       id="0-4"
       gradientTransform="translate(-1.5971249,48.408736)">
      <stop
         id="stop5894"
         stop-color="#fff" />
      <stop
         id="stop5896"
         stop-opacity="0"
         stop-color="#fff"
         offset="1" />
    </linearGradient>
    <clipPath
       id="clipPath4506"
       clipPathUnits="userSpaceOnUse">
      <rect
         y="3.6016948"
         x="7.6271186"
         height="15.466102"
         width="33.686436"
         id="rect4508"
         style="opacity:1;fill:#d40000;fill-opacity:1;stroke:#000000;stroke-width:0.19755037;stroke-linecap:square;stroke-linejoin:miter;stroke-miterlimit:4;stroke-dasharray:none;stroke-opacity:1;paint-order:normal" />
    </clipPath>
    <linearGradient
       y2="37.429001"
       x2="77.739998"
       y1="37.551998"
       x1="21.190001"
       gradientUnits="userSpaceOnUse"
       id="linearGradient4543"
       xlink:href="#0-9"
       inkscape:collect="always" />
  </defs>
  <g
     transform="translate(0,0.03442993)"
     id="g4552">
    <g
       transform="matrix(1,0,0,-1,1.2527296,52.240872)"
       id="g4502"
       clip-path="url(#clipPath4506)">
      <path
         style="fill:#1f1a17"
         inkscape:connector-curvature="0"
         id="path3947"
         d="m 28.408,9.22 h 4.216 V 5.825 h 6.796 v 9.295 l -5.5,4.243 V 31.22 l 4.22,4.221 v 5.08 h 3.789 V 46.45 H 8.07 v -5.929 h 3.794 v -5.08 L 16.11,31.22 V 19.363 L 10.602,15.12 V 5.825 h 6.774 V 9.22 h 4.242 V 5.825 h 6.79 z" />
      <path
         style="fill:url(#linearGradient4543)"
         inkscape:connector-curvature="0"
         id="path3949"
         d="M 25.01,35.04 H 14.74 l -1.143,1.067 v 1.439 H 36.423 V 36.107 L 35.28,35.04 H 25.01 m -11.413,5.08 v 2.532 H 36.423 V 40.12 H 13.597 M 25.01,13.04 h -12.7 v 1.143 l 1.812,1.363 h 21.802 l 1.761,-1.363 V 13.04 H 25.01 m 0,4.191 h -8.678 l 1.482,1.168 v 1.414 h 14.393 v -1.414 l 1.482,-1.168 h -8.678 m 0,13.547 h -7.197 v 1.143 L 16.332,33.36 H 33.689 L 32.207,31.921 V 30.778 H 25.01" />
    </g>
    <g
       id="g5223"
       transform="matrix(0.82892275,0,0,0.82892275,-1.0770696,-2.1193899)">
      <g
         id="g7060"
         transform="matrix(0.8464153,0,0,0.8464153,8.4865326,-35.222843)">
        <path
           id="path5901"
           d="m 24.582875,57.803736 c 2.599,0.169 5,0.838 7.221999,2.02 2.210002,1.168 4.098002,2.675 5.656,4.513 1.092002,1.287 2.117001,2.845 3.082001,4.665 0.973999,1.812 1.744,3.742 2.32,5.774 0.659999,2.371 1.084002,4.851 1.253,7.459 0.178002,2.599001 0.262999,5.010001 0.262999,7.229999 v 5.402001 c 0,0 -1.286998,0 -3.860998,0 -2.565,0 -5.901002,0 -10.010002,0 H 13.870875 c -0.152,0 -0.22,-0.406 -0.212,-1.211001 0.008,-0.812998 0.059,-1.464999 0.161,-1.963997 0.059,-0.398002 0.22,-0.957002 0.466,-1.685001 0.254,-0.728001 0.66,-1.609 1.245,-2.65 0.262,-0.533002 0.889,-1.304002 1.88,-2.32 0.999,-1.016002 2.134,-2.200999 3.429,-3.539 0.745,-0.762001 1.321,-1.719001 1.744,-2.879001 0.423,-1.151 0.601,-2.201 0.533,-3.15 -0.61,0.5 -1.279,0.906 -2.01,1.219 -3.505,1.253 -6.05,3.073 -7.611,5.452001 -0.119,0.152 -0.491,0.820999 -1.118,2.02 -0.33,0.627 -0.618,1.057998 -0.847,1.286999 -0.313,0.313001 -0.771,0.491 -1.363,0.525001 -0.9230001,0.042 -1.6430001,-0.398002 -2.159,-1.346001 -0.6940002,0.203 -1.3120001,0.288 -1.863,0.253999 -0.923,-0.346997 -1.5920001,-0.719998 -2.0100001,-1.118 -0.847,-0.847 -1.389,-1.685 -1.651,-2.531999 -0.254,-0.847 -0.381,-1.753 -0.381,-2.726 0,-1.389 0.855,-3.226 2.582,-5.512 2.0200001,-2.625 3.0900001,-4.631 3.2170002,-6 0,-0.593 0.059,-1.262 0.1779999,-2.01 0.1020001,-0.517 0.3049999,-1.01 0.6179999,-1.49 0.22,-0.33 0.364,-0.559 0.432,-0.677 0.076,-0.127 0.212,-0.313 0.415,-0.559 0.144,-0.203 0.271,-0.356 0.373,-0.457 0.093,-0.11 0.2200001,-0.254 0.3730001,-0.44 0.178,-0.212 0.406,-0.457 0.694,-0.745 -0.88,-2.413 -1.2360001,-4.902 -1.0670001,-7.459 3.2850001,1.168 6.0500001,3.01 8.2800001,5.529 0.55,-1.871 1.626,-3.387 3.226,-4.538 1.321,0.923 2.371,2.151 3.15,3.666"
           style="fill:#1f1a17;stroke-width:1"
           inkscape:connector-curvature="0" />
        <path
           id="path5903"
           d="m 14.090875,66.194736 c 0.364,-0.186 0.542,-0.279 0.542,-0.279 0.499,-0.195 0.652,-0.559 0.474,-1.092 -0.195,-0.491 -0.576,-0.66 -1.143,-0.491 -1.947,0.711 -3.294,2.02 -4.0400001,3.92 -0.118,0.542 0.076,0.914 0.5930001,1.118 0.516,0.161 0.864,-0.017 1.041,-0.55 0.136,-0.279 0.229,-0.466 0.296,-0.542 0.186,0.144 0.423,0.245 0.72,0.296 1.01,0.161 1.6,-0.279 1.761,-1.338 0.051,-0.364 -0.034,-0.711 -0.246,-1.041 M 9.9738749,82.959737 c 0.059,-0.152001 0.1690001,-0.373 0.3220001,-0.669001 0.279,-0.694 0.415,-1.109 0.415,-1.245 -0.025,-0.457 -0.271,-0.694 -0.7200001,-0.694 -0.33,0 -0.711,0.474 -1.16,1.414001 -0.068,0.135999 -0.169,0.253999 -0.296,0.347 -0.4489999,0.465999 -0.3809999,0.854998 0.195,1.168 0.533,0.312999 0.94,0.212 1.245,-0.322002 M 24.604875,73.755736 c 1.16,-1.524 1.727,-3.217 1.71,-5.08 -0.068,-0.55 -0.381,-0.821 -0.94,-0.821 -0.762,0 -1.058,0.279 -0.898,0.838 0.051,0.914 -0.034,1.668 -0.271,2.261 -0.381,0.94 -0.804,1.642 -1.261,2.108 -0.254,0.5 -0.102,0.864 0.449,1.092 0.525,0.245 0.931,0.119 1.211,-0.398 m -6.477,-12.11 c -0.076,-0.593 -0.059,-1.236 0.051,-1.93 -0.991,0.195 -1.922,0.66 -2.802,1.389 -0.525,0.279 -0.652,0.669 -0.373,1.168 0.279,0.508 0.669,0.593 1.168,0.246 0.347,-0.186 0.669,-0.356 0.957,-0.508 0.288,-0.161 0.618,-0.279 0.999,-0.364 m 23.25,31.454001 c -0.01699,0 0,-0.449001 0.042,-1.346001 0.131001,-3.106999 0.095,-6.220999 0.076,-9.329999 -0.01699,-2.210001 -0.312999,-4.411001 -0.889,-6.613001 -0.840001,-3.31 -2.123999,-6.485 -4.071998,-9.296 -2.634002,-3.845 -6.814002,-6.03 -11.286002,-6.976 0.126,0.766 0.033,1.54 0.076,2.311 1.6,0.542 3.116,1.219 4.538,2.032 4.241,2.554 6.414001,7.275 7.197,11.93 1.272002,6.154 0.453,11.557 0.812999,17.289 h 3.505001 m -33.537,-14.554 c 0.4739999,-0.339 0.5249999,-0.728 0.1439998,-1.194 -0.3979999,-0.381 -0.83,-0.415 -1.3119997,-0.102 -1.0100001,0.66 -1.5490002,1.532 -1.6170001,2.608 0.017001,0.542 0.347,0.804 0.9739998,0.771 0.5930003,-0.051 0.8810002,-0.356 0.8640001,-0.923 0.1350001,-0.525 0.4490002,-0.914 0.948,-1.16"
           style="fill:url(#0-4);stroke-width:1"
           inkscape:connector-curvature="0" />
      </g>
    </g>
  </g>
</svg>

<svg clip-rule="evenodd" fill-rule="evenodd" height="50mm" image-rendering="optimizeQuality" shape-rendering="geometricPrecision" text-rendering="geometricPrecision" viewBox="0 0 50 50" width="50mm" xmlns="http://www.w3.org/2000/svg"><linearGradient id="a" gradientUnits="userSpaceOnUse" x1="21.192" x2="77.736" y1="37.552" y2="37.429"><stop offset="0" stop-color="#fff"/><stop offset="1" stop-color="#fff" stop-opacity="0"/></linearGradient><path d="M28.408 9.22h4.216V5.825h6.799v9.296l-5.503 4.242v11.862l4.216 4.216v5.08h3.793v5.927H8.071V40.52h3.793v-5.08l4.242-4.216V19.363l-5.504-4.242V5.825h6.774V9.22h4.242V5.825h6.79z" fill="#1f1a17"/><path d="M25.013 35.043h-10.27L13.6 36.11v1.44h22.826v-1.44l-1.143-1.067zM13.6 40.123v2.532h22.826v-2.532zM25.013 13.04h-12.7v1.142l1.812 1.364h21.801l1.761-1.364V13.04zm0 4.19h-8.679l1.482 1.169v1.414h14.393v-1.414l1.482-1.168zm0 13.547h-7.197v1.143l-1.482 1.44h17.357l-1.482-1.44v-1.143z" fill="url(#a)"/><!-- Knight ears in merlon gaps --><path d="M18 9.2 Q18.5 5.5 19.5 2.5 Q21 5.5 21 9.2" fill="#ddd"/><path d="M29 9.2 Q29.5 5.5 30.5 2.5 Q32 5.5 32 9.2" fill="#ddd"/><!-- Knight L-movement marks --><path d="M13 36 L13 32.5 L16 32.5" fill="none" stroke="#60a5fa" stroke-width="1" stroke-linecap="round" stroke-linejoin="round" opacity="0.7"/><path d="M37 36 L37 32.5 L34 32.5" fill="none" stroke="#60a5fa" stroke-width="1" stroke-linecap="round" stroke-linejoin="round" opacity="0.7"/></svg>
